rospo-icon-theme-classic-common/64x64/apps/com.github.philip-scott.spice-up.svg

<svg height="64" width="64" xmlns="http://www.w3.org/2000/svg"><rect height="52" opacity=".2" rx="2.6" transform="scale(1 -1)" width="52" x="6" y="-61"/><rect fill="#e4e4e4" height="52" rx="2.6" transform="scale(1 -1)" width="52" x="6" y="-60"/><rect height="11" opacity=".2" rx="2.466" ry="2.059" width="58" x="3" y="6"/><rect fill="#4f4f4f" height="11" rx="2.466" ry="2.059" width="58" x="3" y="5"/><rect fill="#438bf6" height="32" rx="2" ry="1.6" transform="scale(1 -1)" width="40" x="12" y="-54"/><path d="m26.148676 29.000568a2.0996793 2.0854523 0 0 0 -2.148676 2.085244v7.913336 7.915375a2.0996793 2.0854523 0 0 0 3.149203 1.806261l6.901188-3.95667 6.901184-3.958704a2.0996793 2.0854523 0 0 0 0-3.610486l-6.901184-3.958702-6.901188-3.956669a2.0996793 2.0854523 0 0 0 -1.000527-.278985z" opacity=".2"/><path d="m26.148676 28.000568a2.0996793 2.0854523 0 0 0 -2.148676 2.085244v7.913336 7.915375a2.0996793 2.0854523 0 0 0 3.149203 1.806261l6.901188-3.95667 6.901184-3.958704a2.0996793 2.0854523 0 0 0 0-3.610486l-6.901184-3.958702-6.901188-3.956669a2.0996793 2.0854523 0 0 0 -1.000527-.278985z" fill="#fff"/><path d="m5.4667969 5c-1.366135 0-2.4667969.9178319-2.4667969 2.0585938v1c0-1.1407619 1.1006619-2.0585938 2.4667969-2.0585938h53.0664061c1.366135 0 2.466797.9178319 2.466797 2.0585938v-1c0-1.1407619-1.100662-2.0585938-2.466797-2.0585938z" fill="#fff" opacity=".1"/></svg>

<svg xmlns="http://www.w3.org/2000/svg" width="64" height="64" version="1">
 <rect width="52" height="52" x="6" y="-61" rx="2.6" ry="2.6" transform="scale(1,-1)" style="opacity:0.2"/>
 <rect style="fill:#cccccc" width="52" height="52" x="6" y="-60" rx="2.6" ry="2.6" transform="scale(1,-1)"/>
 <rect width="58" height="11" x="3" y="6" rx="2.466" ry="2.059" style="opacity:0.2"/>
 <rect style="fill:#4f4f4f" width="58" height="11" x="3" y="5" rx="2.466" ry="2.059"/>
 <rect width="40" height="32" x="12" y="-54" rx="2" ry="1.6" transform="scale(1,-1)" style="fill:#438bf6"/>
 <path d="M 26.148676,29.000568 A 2.0996793,2.0854523 0 0 0 24,31.085812 l 0,7.913336 0,7.915375 a 2.0996793,2.0854523 0 0 0 3.149203,1.806261 l 6.901188,-3.95667 6.901184,-3.958704 a 2.0996793,2.0854523 0 0 0 0,-3.610486 l -6.901184,-3.958702 -6.901188,-3.956669 a 2.0996793,2.0854523 0 0 0 -1.000527,-0.278985 z" style="opacity:0.2"/>
 <path style="fill:#ffffff" d="M 26.148676,28.000568 A 2.0996793,2.0854523 0 0 0 24,30.085812 l 0,7.913336 0,7.915375 a 2.0996793,2.0854523 0 0 0 3.149203,1.806261 l 6.901188,-3.95667 6.901184,-3.958704 a 2.0996793,2.0854523 0 0 0 0,-3.610486 l -6.901184,-3.958702 -6.901188,-3.956669 a 2.0996793,2.0854523 0 0 0 -1.000527,-0.278985 z"/>
 <path style="opacity:0.1;fill:#ffffff" d="M 5.4667969 5 C 4.1006619 5 3 5.9178319 3 7.0585938 L 3 8.0585938 C 3 6.9178319 4.1006619 6 5.4667969 6 L 58.533203 6 C 59.899338 6 61 6.9178319 61 8.0585938 L 61 7.0585938 C 61 5.9178319 59.899338 5 58.533203 5 L 5.4667969 5 z"/>
</svg>
